packages/netlify-cms-ui-default/src/Icon/images/scroll.svg

<svg viewBox="0 0 24 24"><path d="m12.8086276 8.18202896c0 .49706225-.4017845.89884675-.8988467.89884675-.4970623 0-.8988468-.4017845-.8988468-.89884675v-4.1239276l-2.43497581 2.4358747c-.35144908.35144908-.91952022.35144908-1.2709693 0s-.35144908-.91952023 0-1.27096931l3.96930721-3.9702061c.3370676-.33706753.9339018-.33706753 1.2709693 0l4.0259346 4.0259346c.3514491.35144908.3514491.91952022 0 1.2709693-.1752751.17527512-.4053798.2633621-.6354846.2633621s-.4602095-.08808698-.6354847-.2633621l-2.4916032-2.49160319zm.0152252 11.74930824 2.4349759-2.4349759c.351449-.3505502.9195202-.351449 1.2709693 0 .351449.3514491.351449.9195203 0 1.2709693l-3.9693073 3.9693073c-.1752751.1752751-.4053799.2633621-.6354846.2633621-.2301048 0-.4602096-.088087-.6354847-.2633621l-4.02593459-4.0259346c-.35144908-.3514491-.35144908-.9195202 0-1.2709693s.91952023-.3514491 1.27096931 0l2.49160318 2.4916032v-4.1239276c0-.4970623.4017845-.8988468.8988468-.8988468.4970622 0 .8988467.4017845.8988467.8988468zm-.901816-6.4783849c-.837169 0-1.5158285-.6786596-1.5158285-1.5158286s.6786595-1.5158286 1.5158285-1.5158286c.8371691 0 1.5158286.6786596 1.5158286 1.5158286s-.6786595 1.5158286-1.5158286 1.5158286z"/></svg>

<svg viewBox="0 0 24 24"><path d="M12.8086276,8.18202896 C12.8086276,8.67909121 12.4068431,9.08087571 11.9097809,9.08087571 C11.4127186,9.08087571 11.0109341,8.67909121 11.0109341,8.18202896 L11.0109341,4.05810136 L8.57595829,6.49397606 C8.22450921,6.84542514 7.65643807,6.84542514 7.30498899,6.49397606 C6.95353991,6.14252698 6.95353991,5.57445583 7.30498899,5.22300675 L11.2742962,1.25280065 C11.6113638,0.915733117 12.208198,0.915733117 12.5452655,1.25280065 L16.5712001,5.27873525 C16.9226492,5.63018433 16.9226492,6.19825547 16.5712001,6.54970455 C16.395925,6.72497967 16.1658203,6.81306665 15.9357155,6.81306665 C15.7056107,6.81306665 15.475506,6.72497967 15.3002308,6.54970455 L12.8086276,4.05810136 L12.8086276,8.18202896 Z M12.8238528,19.9313372 L15.2588287,17.4963613 C15.6102777,17.1458111 16.1783489,17.1449123 16.529798,17.4963613 C16.881247,17.8478104 16.881247,18.4158816 16.529798,18.7673306 L12.5604907,22.7366379 C12.3852156,22.911913 12.1551108,23 11.9250061,23 C11.6949013,23 11.4647965,22.911913 11.2895214,22.7366379 L7.26358681,18.7107033 C6.91213773,18.3592542 6.91213773,17.7911831 7.26358681,17.439734 C7.61503589,17.0882849 8.18310704,17.0882849 8.53455612,17.439734 L11.0261593,19.9313372 L11.0261593,15.8074096 C11.0261593,15.3103473 11.4279438,14.9085628 11.9250061,14.9085628 C12.4220683,14.9085628 12.8238528,15.3103473 12.8238528,15.8074096 L12.8238528,19.9313372 Z M11.9220368,13.4529523 C11.0848678,13.4529523 10.4062083,12.7742927 10.4062083,11.9371237 C10.4062083,11.0999547 11.0848678,10.4212951 11.9220368,10.4212951 C12.7592059,10.4212951 13.4378654,11.0999547 13.4378654,11.9371237 C13.4378654,12.7742927 12.7592059,13.4529523 11.9220368,13.4529523 Z"/></svg>
